X: 81
M:4/4s
L:1/4
Q:160
K:F
|: f f e d/2c/2| d d c A| f f e/2f/2 g| d2 c2| f f e d/2c/2| d d c A| B/2c/2 d c B/2A/2||G2 F2:|

